X:1
T:Jam moriens
T:Daniel Friderici
T:Source : Bicinia sacra---Rostock---J.Richelius---1642. Editor : André Vierendeels (04/07/17).
T:Notes : Original clefs : C1, C1 Editorial accidentals above the staff 
T:Jam moriens
T:©
T:©
T:©
C:Daniel Friderici
Z:©
%%score [ 1 2 ]
L:1/8
Q:1/4=120
M:2/2
K:C
V:1 treble nm="Soprano 1" snm="S 1"
V:2 treble nm="Soprano 2" snm="S 2"
V:1
 z8 | z8 | A8 | G6 FE | F4 F4 | E8 | z4 A4 | G6 FE | F4 F4 | E8 | z4 A4- | A4 G4- | G4 F2 E2 | %13
w: ||Jam|mo- * *|* ri-|ens,|jam|mo- * *|* ri-|ens,|jam|_ mo-||
 F4 F4 | E8 | z8 | z4 e4- | e4 d4- | d4 c2 B2 | c4 c4 | B2 A4 A2 | A4 B4 | c4 z2 c2 | BABc B2 A2 | %24
w: * ri-|ens,||jam|_ mo-||* ri-|ens Si- me-|on Chri-|stum, fert|car- * * * * mi-|
 ^G2 A2 G4 | ^G2 e2 dcde | d2 c2 B2 A2 | B8 | B8 :: z8 | z8 | A2 AA A2 B2 | c3 c c4 | c2 cc c2 d2 | %34
w: ne ad a-|stra, fert car- * * *|* mi- ne ad|a-|stra:|||Da mi- hi in hoc|et i- am,|da mi- hi hoc in|
 e3 e e4 | dcde d2 c2 | B2 A2 B4 | E2 F2 G2 A2 | B4 E4 | E2 F2 G2 A2 | B4 E4 | E2 F2 G2 A2 | %42
w: et- i- am|car- * * * * mi-|ne Chri- ste|mo- * * *|* ri,|mo- * * *|* ri,|mo- * * *|
 B4 E4 | z4 e2 d2 | c2 B2 A2 B2 | c2 d2 e2 d2 | c6 BA | B4 c4 | B4 A4- | A4 ^G4 | A8 |] %51
w: * ri,|mo- *|||||||ri.|
V:2
 A8 | G6 FE | F4 F4 | E8 | z4 A4 | G6 FE | F4 F4 | E8 | z4 A4- | A4 G4- | G4 F2 E2 | F4 E4- | %12
w: Jam|mo- * *|* ri-|ens,|jam|mo- * *|* ri-|ns,|jam|_ mo-|||
 E4 D2 ^C2 | D4 D4 | E4 e4- | e4 d4- | d4 c2 B2 | c4 B4- | B4 A2 ^G2 | A4 A4 | B2 ^c4 c2 | ^c4 d4 | %22
w: |* ri-|ens, jam|_ mo-||||* ri-|ens, Si- me-|on Chri-|
 e4 z2 e2 | dcde d2 c2 | B2 A2 B4 | B2 c2 BABc | B2 A2 ^G2 A2 | ^G8 | ^G8 :: A2 AA A2 B2 | %30
w: stum, fert|car- * * * * mi-|ne ad a-|stra, fert car- * * *|* mi- ne ad|a-|stra:|Da mi- hi in hoc|
 c3 c c4 | c2 cc c2 d2 | e3 e e4 | A2 AA A2 B2 | c3 c c4 | BABc B2 A2 | ^G2 A2 G4 | z8 | %38
w: et- i- am,|da mi- hi in hoc|et- i- am,|da mi- hi hoc in|et- i- am,|car- * * * * mi-|ne Chri- ste||
"^#" E2 F2 ^G2 A2 | B4 E4 |"^#" E2 F2 ^G2 A2 | B4 E4 |"^#" E2 F2 ^G2 A2 | B4 E4 | e2 d2 c2 B2 | %45
w: mo- * * *|* ri,|mo- * * *|* ri,|mo- * * *|* ri,|mo- * * *|
 A2 B2 c2 d2 |"^#" e6 EF | ^G4 A4 | B4 c4 | B8 | A8 |] %51
w: |||||ri.|

